src/images/std-icons/std-plus.svg

<svg xmlns="http://www.w3.org/2000/svg" width="512" height="512" viewBox="0 0 512 512">
  <title>plus</title>
  <path fill="#000" fill-rule="nonzero" d="M405.333333,234.665387 L277.333333,234.665387 L277.333333,106.666667 C277.333333,94.884592 267.782075,85.3333333 256,85.3333333 C244.217925,85.3333333 234.666667,94.884592 234.666667,106.666667 L234.666667,234.665387 L106.666667,234.665387 C94.8842385,234.665387 85.3326933,244.216932 85.3326933,255.99936 C85.3326933,267.781788 94.8842385,277.333333 106.666667,277.333333 L234.666667,277.333333 L234.666667,405.333333 C234.666667,417.115408 244.217925,426.666667 256,426.666667 C267.782075,426.666667 277.333333,417.115408 277.333333,405.333333 L277.333333,277.333333 L405.333333,277.333333 C417.115761,277.333333 426.667307,267.781788 426.667307,255.99936 C426.667307,244.216932 417.115761,234.665387 405.333333,234.665387 Z"/>
</svg>

<svg xmlns="http://www.w3.org/2000/svg" viewBox="0 0 512 512">
  <title>
    plus
  </title>
  <path d="M405.33 234.67h-128v-128a21.33 21.33 0 1 0-42.66 0v128h-128a21.33 21.33 0 1 0 0 42.66h128v128a21.33 21.33 0 1 0 42.66 0v-128h128a21.33 21.33 0 1 0 0-42.66z"/>
</svg>
